public/images/logos/epycure.svg

<svg width="810" height="268" viewBox="0 0 810 268" fill="none" xmlns="http://www.w3.org/2000/svg">
<path d="M317.639 264.059H1M355.687 266.37V225.952H364.046V258.988H386.126V266.37H355.687ZM393.256 266.37L409.853 225.922H419.53L435.918 266.37H426.87L422.766 255.748H406.108L401.944 266.37H393.256ZM408.685 249.057H420.219L414.497 234.144L408.685 249.057ZM443.647 225.952H462.612C466.656 225.952 469.922 226.972 472.468 229.043C475.015 231.113 476.273 233.784 476.273 237.054C476.273 238.825 475.824 240.445 474.955 241.915C474.086 243.386 472.858 244.586 471.33 245.546C473.247 246.476 474.805 247.736 475.943 249.327C477.112 250.917 477.681 252.717 477.681 254.668C477.681 258.178 476.393 260.999 473.786 263.159C471.18 265.32 467.765 266.4 463.54 266.4H443.647V225.952ZM462.102 232.884H452.006V242.485H462.102C463.87 242.485 465.308 242.065 466.356 241.195C467.435 240.325 467.974 239.155 467.974 237.714C467.974 236.274 467.435 235.074 466.356 234.234C465.308 233.304 463.87 232.884 462.102 232.884ZM462.911 259.439C464.829 259.439 466.386 258.958 467.525 258.028C468.663 257.098 469.263 255.808 469.263 254.188C469.263 252.657 468.693 251.397 467.525 250.437C466.356 249.477 464.829 248.997 462.911 248.997H452.006V259.439H462.911ZM528.432 246.176C528.432 249.057 527.863 251.787 526.754 254.338C525.646 256.888 524.118 259.109 522.23 260.969C520.313 262.829 518.066 264.299 515.46 265.38C512.853 266.46 510.037 267 507.041 267C504.075 267 501.289 266.46 498.682 265.38C496.076 264.299 493.799 262.829 491.912 260.969C489.994 259.109 488.496 256.888 487.388 254.338C486.279 251.787 485.71 249.057 485.71 246.176C485.71 243.296 486.279 240.565 487.388 238.015C488.496 235.464 490.024 233.244 491.912 231.383C493.829 229.523 496.076 228.053 498.682 226.972C501.289 225.892 504.075 225.352 507.041 225.352C510.037 225.352 512.853 225.892 515.46 226.972C518.066 228.053 520.343 229.523 522.23 231.383C524.148 233.244 525.646 235.464 526.754 238.015C527.863 240.565 528.432 243.266 528.432 246.176ZM519.834 246.176C519.834 244.286 519.504 242.545 518.845 240.955C518.186 239.365 517.287 237.985 516.149 236.784C515.01 235.614 513.662 234.684 512.074 234.024C510.486 233.364 508.809 233.004 507.011 233.004C505.214 233.004 503.536 233.334 501.948 234.024C500.39 234.684 499.042 235.614 497.904 236.784C496.765 237.955 495.866 239.335 495.207 240.955C494.548 242.545 494.219 244.286 494.219 246.176C494.219 248.036 494.548 249.747 495.207 251.367C495.866 252.987 496.765 254.368 497.904 255.568C499.042 256.738 500.39 257.668 501.948 258.328C503.506 259.018 505.184 259.349 507.011 259.349C508.809 259.349 510.516 259.018 512.074 258.328C513.662 257.668 515.01 256.738 516.149 255.568C517.287 254.398 518.186 252.987 518.845 251.367C519.504 249.747 519.834 248.006 519.834 246.176ZM538.468 266.37V225.952H558.181C560.219 225.952 562.106 226.252 563.814 226.882C565.521 227.513 566.989 228.353 568.218 229.463C569.446 230.573 570.405 231.893 571.094 233.424C571.783 234.954 572.142 236.664 572.142 238.495C572.142 241.045 571.423 243.296 569.985 245.306C568.547 247.316 566.63 248.787 564.263 249.747L573.191 266.37H563.844L555.935 250.887H546.827V266.37H538.468ZM557.432 233.154H546.827V244.016H557.432C559.32 244.016 560.818 243.506 561.956 242.515C563.095 241.525 563.664 240.205 563.664 238.585C563.664 236.964 563.095 235.644 561.956 234.654C560.848 233.664 559.32 233.154 557.432 233.154ZM578.674 266.37L595.271 225.922H604.948L621.335 266.37H612.288L608.183 255.748H591.526L587.362 266.37H578.674ZM594.133 249.057H605.667L599.945 234.144L594.133 249.057ZM618.579 233.334V225.952H654.111V233.334H640.569V266.37H632.211V233.334H618.579ZM701.806 246.176C701.806 249.057 701.237 251.787 700.128 254.338C699.02 256.888 697.492 259.109 695.604 260.969C693.687 262.829 691.44 264.299 688.834 265.38C686.227 266.46 683.411 267 680.415 267C677.449 267 674.663 266.46 672.056 265.38C669.45 264.299 667.173 262.829 665.286 260.969C663.368 259.109 661.87 256.888 660.762 254.338C659.653 251.787 659.084 249.057 659.084 246.176C659.084 243.296 659.653 240.565 660.762 238.015C661.87 235.464 663.398 233.244 665.286 231.383C667.203 229.523 669.45 228.053 672.056 226.972C674.663 225.892 677.449 225.352 680.415 225.352C683.411 225.352 686.227 225.892 688.834 226.972C691.44 228.053 693.717 229.523 695.604 231.383C697.522 233.244 699.02 235.464 700.128 238.015C701.237 240.565 701.806 243.266 701.806 246.176ZM693.208 246.176C693.208 244.286 692.878 242.545 692.219 240.955C691.56 239.365 690.661 237.985 689.523 236.784C688.384 235.614 687.036 234.684 685.448 234.024C683.86 233.364 682.183 233.004 680.385 233.004C678.588 233.004 676.91 233.334 675.322 234.024C673.764 234.684 672.416 235.614 671.277 236.784C670.139 237.955 669.24 239.335 668.581 240.955C667.922 242.545 667.593 244.286 667.593 246.176C667.593 248.036 667.922 249.747 668.581 251.367C669.24 252.987 670.139 254.368 671.277 255.568C672.416 256.738 673.764 257.668 675.322 258.328C676.88 259.018 678.558 259.349 680.385 259.349C682.183 259.349 683.89 259.018 685.448 258.328C687.036 257.668 688.384 256.738 689.523 255.568C690.661 254.398 691.56 252.987 692.219 251.367C692.878 249.747 693.208 248.006 693.208 246.176ZM711.842 225.952H720.201V266.4H711.842V225.952ZM731.855 266.37V225.952H751.568C753.605 225.952 755.493 226.252 757.2 226.882C758.908 227.513 760.376 228.353 761.604 229.463C762.833 230.573 763.792 231.893 764.481 233.424C765.17 234.954 765.529 236.664 765.529 238.495C765.529 241.045 764.81 243.296 763.372 245.306C761.934 247.316 760.017 248.787 757.65 249.747L766.578 266.37H757.23L749.321 250.887H740.214V266.37H731.855ZM750.819 233.154H740.214V244.016H750.819C752.707 244.016 754.205 243.506 755.343 242.515C756.481 241.525 757.051 240.205 757.051 238.585C757.051 236.964 756.481 235.644 755.343 234.654C754.205 233.664 752.707 233.154 750.819 233.154ZM775.326 225.952H806.364V233.244H783.684V242.485H798.634V249.537H783.684V259.139H806.573V266.43H775.326V225.952ZM186.597 49.6691C164.877 49.6691 152.833 61.1013 147.021 69.2628C147.021 69.0828 147.021 68.9328 147.021 68.7527V52.4897H132.761V220.701H147.021V158.32C147.021 157.869 147.021 157.419 147.021 156.999C152.953 165.221 164.877 176.683 185.219 176.683C217.066 176.683 239.296 150.578 239.296 113.161C239.266 74.6038 218.594 49.6691 186.597 49.6691ZM185.189 165.401C161.162 165.401 145.343 141.276 145.343 113.401C145.343 74.5438 167.304 59.9311 186.358 59.9311C208.468 59.9311 224.526 82.3153 224.526 113.161C224.526 143.437 207.988 165.401 185.189 165.401ZM467.195 146.797C467.075 146.977 454.193 166.271 430.076 166.271C403.742 166.271 382.321 142.567 382.321 113.401C382.321 83.3355 403.292 59.8111 430.076 59.8111C451.017 59.8111 463.87 77.5444 463.99 77.7244L465.757 80.1849L474.745 68.3927L473.577 67.0124C472.977 66.2923 458.567 49.6091 430.076 49.6091C394.454 49.6091 367.581 77.0043 367.581 113.371C367.581 150.038 393.855 176.653 430.076 176.653C459.735 176.653 475.284 158.38 475.943 157.599L476.992 156.339L469.143 143.827L467.195 146.797ZM586.044 111.781C586.044 138.156 569.057 166.601 541.644 166.601C522.47 166.601 513.902 153.879 513.902 125.343V52.4597H499.641V128.854C499.641 161.95 512.224 176.713 540.416 176.713C563.964 176.713 578.733 162.52 586.073 151.448V173.923H600.334V52.4597H586.073V111.781H586.044ZM685.328 51.5295C671.188 51.5295 658.605 60.1111 650.666 74.5738V52.4597H636.405V173.892H650.666V121.143C650.666 112.441 651.744 96.0879 654.081 88.6465C658.725 73.0135 668.791 66.0522 686.736 66.0522C689.073 66.0522 691.71 66.4723 691.74 66.5023L694.346 66.9224V52.6697L692.578 52.2796C692.429 52.2496 689.013 51.5295 685.328 51.5295ZM759.178 49.6691C743.359 49.6691 728.739 55.5503 718.014 66.2623C706.36 77.9045 700.188 94.2275 700.188 113.431C700.188 150.098 726.462 176.713 762.683 176.713C788.508 176.713 805.135 160.63 805.824 159.94L807.113 158.65L798.904 146.137L797.016 148.868C796.897 149.048 784.643 166.541 762.653 166.541C736.079 166.541 715.887 144.007 714.928 113.761H808.281L808.521 111.811C808.551 111.661 809 107.91 809 105.21C809.03 77.5744 793.601 49.6691 759.178 49.6691ZM794.41 103.559H715.557C720.201 78.0545 738.087 59.8411 758.848 59.8411C778.232 59.8111 792.642 77.6944 794.41 103.559ZM59.9897 49.6691C44.1712 49.6691 29.5511 55.5503 18.8257 66.2623C7.1716 77.9045 1 94.2275 1 113.431C1 150.098 25.5666 176.713 61.7573 176.713C87.5821 176.713 105.917 160.63 106.606 159.94L107.894 158.65L99.6856 146.137L97.7982 148.868C97.6784 149.048 83.7174 166.541 61.7273 166.541C35.1535 166.541 16.6687 144.007 15.7399 113.761H109.093L109.333 111.811C109.362 111.661 109.812 107.91 109.812 105.21C109.872 77.5744 94.4428 49.6691 59.9897 49.6691ZM16.1893 103.469C17.2679 80.3649 37.9996 58.8509 58.7314 58.8509C78.115 58.8509 95.9707 78.4446 95.2517 103.529L16.1893 103.469ZM424.653 13.5424C434.3 13.5424 446.733 16.843 455.601 20.6537L460.095 8.92149C460.095 8.92149 445.325 1 428.907 1C393.915 1 364.585 17.6531 348.856 54.6801C335.315 86.5761 305.685 156.879 305.685 156.879L262.993 52.4897H247.864L297.866 175.303L277.014 220.611L291.065 220.551L308.441 176.803C308.441 176.803 345.561 86.6961 357.455 59.9011C371.266 28.6952 396.012 13.5424 424.653 13.5424Z" stroke="#1A2341" stroke-width="1.1046" stroke-miterlimit="10"/>
</svg>

<svg xmlns="http://www.w3.org/2000/svg" width="810" height="268" fill="none"><path stroke="#1A2341" stroke-miterlimit="10" stroke-width="1.105" d="M317.639 264.059H1m354.687 2.311v-40.418h8.359v33.036h22.08v7.382h-30.439Zm37.569 0 16.597-40.448h9.677l16.388 40.448h-9.048l-4.104-10.622h-16.658l-4.164 10.622h-8.688Zm15.429-17.313h11.534l-5.722-14.913-5.812 14.913Zm34.962-23.105h18.965c4.044 0 7.31 1.02 9.856 3.091 2.547 2.07 3.805 4.741 3.805 8.011a9.387 9.387 0 0 1-1.318 4.861c-.869 1.471-2.097 2.671-3.625 3.631 1.917.93 3.475 2.19 4.613 3.781 1.169 1.59 1.738 3.39 1.738 5.341 0 3.51-1.288 6.331-3.895 8.491-2.606 2.161-6.021 3.241-10.246 3.241h-19.893v-40.448Zm18.455 6.932h-10.096v9.601h10.096c1.768 0 3.206-.42 4.254-1.29 1.079-.87 1.618-2.04 1.618-3.481 0-1.44-.539-2.64-1.618-3.48-1.048-.93-2.486-1.35-4.254-1.35Zm.809 26.555c1.918 0 3.475-.481 4.614-1.411 1.138-.93 1.738-2.22 1.738-3.84 0-1.531-.57-2.791-1.738-3.751-1.169-.96-2.696-1.44-4.614-1.44h-10.905v10.442h10.905Zm65.521-13.263c0 2.881-.569 5.611-1.678 8.162a20.98 20.98 0 0 1-4.524 6.631c-1.917 1.86-4.164 3.33-6.77 4.411-2.607 1.08-5.423 1.62-8.419 1.62-2.966 0-5.752-.54-8.359-1.62-2.606-1.081-4.883-2.551-6.77-4.411-1.918-1.86-3.416-4.081-4.524-6.631-1.109-2.551-1.678-5.281-1.678-8.162 0-2.88.569-5.611 1.678-8.161a20.984 20.984 0 0 1 4.524-6.632c1.917-1.86 4.164-3.33 6.77-4.411 2.607-1.08 5.393-1.62 8.359-1.62 2.996 0 5.812.54 8.419 1.62 2.606 1.081 4.883 2.551 6.77 4.411 1.918 1.861 3.416 4.081 4.524 6.632 1.109 2.55 1.678 5.251 1.678 8.161Zm-8.598 0c0-1.89-.33-3.631-.989-5.221a13.516 13.516 0 0 0-2.696-4.171 12.103 12.103 0 0 0-4.075-2.76 13.042 13.042 0 0 0-5.063-1.02c-1.797 0-3.475.33-5.063 1.02a12.266 12.266 0 0 0-4.044 2.76c-1.139 1.171-2.038 2.551-2.697 4.171-.659 1.59-.988 3.331-.988 5.221 0 1.86.329 3.571.988 5.191a13.285 13.285 0 0 0 2.697 4.201 12.266 12.266 0 0 0 4.044 2.76c1.558.69 3.236 1.021 5.063 1.021 1.798 0 3.505-.331 5.063-1.021a12.103 12.103 0 0 0 4.075-2.76c1.138-1.17 2.037-2.581 2.696-4.201.659-1.62.989-3.361.989-5.191Zm18.634 20.194v-40.418h19.713c2.038 0 3.925.3 5.633.93 1.707.631 3.175 1.471 4.404 2.581a11.813 11.813 0 0 1 2.876 3.961c.689 1.53 1.048 3.24 1.048 5.071 0 2.55-.719 4.801-2.157 6.811-1.438 2.01-3.355 3.481-5.722 4.441l8.928 16.623h-9.347l-7.909-15.483h-9.108v15.483h-8.359Zm18.964-33.216h-10.605v10.862h10.605c1.888 0 3.386-.51 4.524-1.501 1.139-.99 1.708-2.31 1.708-3.93 0-1.621-.569-2.941-1.708-3.931-1.108-.99-2.636-1.5-4.524-1.5Zm21.242 33.216 16.597-40.448h9.677l16.387 40.448h-9.047l-4.105-10.622h-16.657l-4.164 10.622h-8.688Zm15.459-17.313h11.534l-5.722-14.913-5.812 14.913Zm24.446-15.723v-7.382h35.532v7.382h-13.542v33.036h-8.358v-33.036h-13.632Zm83.227 12.842c0 2.881-.569 5.611-1.678 8.162a20.98 20.98 0 0 1-4.524 6.631c-1.917 1.86-4.164 3.33-6.77 4.411-2.607 1.08-5.423 1.62-8.419 1.62-2.966 0-5.752-.54-8.359-1.62-2.606-1.081-4.883-2.551-6.77-4.411-1.918-1.86-3.416-4.081-4.524-6.631-1.109-2.551-1.678-5.281-1.678-8.162 0-2.88.569-5.611 1.678-8.161a20.984 20.984 0 0 1 4.524-6.632c1.917-1.86 4.164-3.33 6.77-4.411 2.607-1.08 5.393-1.62 8.359-1.62 2.996 0 5.812.54 8.419 1.62 2.606 1.081 4.883 2.551 6.77 4.411 1.918 1.861 3.416 4.081 4.524 6.632 1.109 2.55 1.678 5.251 1.678 8.161Zm-8.598 0c0-1.89-.33-3.631-.989-5.221a13.516 13.516 0 0 0-2.696-4.171 12.103 12.103 0 0 0-4.075-2.76 13.042 13.042 0 0 0-5.063-1.02c-1.797 0-3.475.33-5.063 1.02a12.28 12.28 0 0 0-4.045 2.76c-1.138 1.171-2.037 2.551-2.696 4.171-.659 1.59-.988 3.331-.988 5.221 0 1.86.329 3.571.988 5.191a13.3 13.3 0 0 0 2.696 4.201 12.28 12.28 0 0 0 4.045 2.76c1.558.69 3.236 1.021 5.063 1.021 1.798 0 3.505-.331 5.063-1.021a12.103 12.103 0 0 0 4.075-2.76c1.138-1.17 2.037-2.581 2.696-4.201.659-1.62.989-3.361.989-5.191Zm18.634-20.224h8.359V266.4h-8.359v-40.448Zm20.013 40.418v-40.418h19.713c2.037 0 3.925.3 5.632.93 1.708.631 3.176 1.471 4.404 2.581a11.802 11.802 0 0 1 2.877 3.961c.689 1.53 1.048 3.24 1.048 5.071 0 2.55-.719 4.801-2.157 6.811-1.438 2.01-3.355 3.481-5.722 4.441l8.928 16.623h-9.348l-7.909-15.483h-9.107v15.483h-8.359Zm18.964-33.216h-10.605v10.862h10.605c1.888 0 3.386-.51 4.524-1.501 1.138-.99 1.708-2.31 1.708-3.93 0-1.621-.57-2.941-1.708-3.931-1.138-.99-2.636-1.5-4.524-1.5Zm24.507-7.202h31.038v7.292h-22.68v9.241h14.95v7.052h-14.95v9.602h22.889v7.291h-31.247v-40.478ZM186.597 49.669c-21.72 0-33.764 11.432-39.576 19.594V52.49h-14.26V220.7h14.26v-63.702c5.932 8.222 17.856 19.684 38.198 19.684 31.847 0 54.077-26.105 54.077-63.522-.03-38.557-20.702-63.492-52.699-63.492Zm-1.408 115.732c-24.027 0-39.846-24.125-39.846-52 0-38.857 21.961-53.47 41.015-53.47 22.11 0 38.168 22.384 38.168 53.23 0 30.276-16.538 52.24-39.337 52.24Zm282.006-18.604c-.12.18-13.002 19.474-37.119 19.474-26.334 0-47.755-23.704-47.755-52.87 0-30.066 20.971-53.59 47.755-53.59 20.941 0 33.794 17.733 33.914 17.913l1.767 2.46 8.988-11.791-1.168-1.38c-.6-.72-15.01-17.404-43.501-17.404-35.622 0-62.495 27.395-62.495 63.762 0 36.667 26.274 63.282 62.495 63.282 29.659 0 45.208-18.273 45.867-19.054l1.049-1.26-7.849-12.512-1.948 2.97Zm118.849-35.016c0 26.375-16.987 54.82-44.4 54.82-19.174 0-27.742-12.722-27.742-41.258V52.46h-14.261v76.394c0 33.096 12.583 47.859 40.775 47.859 23.548 0 38.317-14.193 45.657-25.265v22.475h14.261V52.46h-14.261v59.321h-.029Zm99.284-60.252c-14.14 0-26.723 8.582-34.662 23.045V52.46h-14.261v121.432h14.261v-52.749c0-8.702 1.078-25.055 3.415-32.496 4.644-15.634 14.71-22.595 32.655-22.595 2.337 0 4.974.42 5.004.45l2.606.42V52.67l-1.768-.39c-.149-.03-3.565-.75-7.25-.75Zm73.85-1.86c-15.819 0-30.439 5.881-41.164 16.593-11.654 11.642-17.826 27.966-17.826 47.169 0 36.667 26.274 63.282 62.495 63.282 25.825 0 42.452-16.083 43.141-16.773l1.289-1.29-8.209-12.513-1.888 2.731c-.119.18-12.373 17.673-34.363 17.673-26.574 0-46.766-22.534-47.725-52.78h93.353l.24-1.95c.03-.15.479-3.901.479-6.601.03-27.636-15.399-55.54-49.822-55.54Zm35.232 53.89h-78.853c4.644-25.504 22.53-43.718 43.291-43.718 19.384-.03 33.794 17.853 35.562 43.718ZM59.99 49.669c-15.819 0-30.439 5.881-41.164 16.593C7.172 77.904 1 94.228 1 113.431c0 36.667 24.567 63.282 60.757 63.282 25.825 0 44.16-16.083 44.849-16.773l1.288-1.29-8.208-12.513-1.888 2.731c-.12.18-14.08 17.673-36.07 17.673-26.575 0-45.06-22.534-45.988-52.78h93.353l.24-1.95c.029-.15.479-3.901.479-6.601.06-27.636-15.37-55.54-49.822-55.54Zm-43.8 53.8C17.267 80.365 38 58.851 58.73 58.851c19.384 0 37.24 19.594 36.52 44.678l-79.062-.06Zm408.463-89.927c9.647 0 22.08 3.301 30.948 7.112l4.494-11.733S445.325 1 428.907 1c-34.992 0-64.322 16.653-80.051 53.68-13.541 31.896-43.171 102.199-43.171 102.199l-42.692-104.39h-15.129l50.002 122.814-20.852 45.308 14.051-.06 17.376-43.748s37.12-90.107 49.014-116.902c13.811-31.206 38.557-46.359 67.198-46.359Z"/></svg>
